images/icon-hero-theeth-3.svg

<svg width="56" height="56" viewBox="0 0 56 56" fill="none" xmlns="http://www.w3.org/2000/svg">
<path fill-rule="evenodd" clip-rule="evenodd" d="M18.8848 0.983912C14.9501 1.68654 11.8601 4.55883 10.9183 8.38893C10.4821 10.1626 10.5529 11.1601 11.5791 17.704C12.2046 21.6929 12.5408 23.5558 12.6864 23.8413C13.3847 25.21 16.093 26.5395 19.5942 27.2324L20.2119 27.3546L20.0719 27.885C19.871 28.6468 19.383 29.4909 18.7924 30.0981L18.28 30.625H16.0513C13.9637 30.625 13.8075 30.639 13.5846 30.8468C13.1015 31.2969 13.1277 31.3883 14.8563 35.2901C15.9207 37.6922 16.5369 39.2226 16.6114 39.6484C16.6745 40.0093 16.7767 41.1906 16.8385 42.2734C17.0543 46.0517 17.9263 49.5845 19.4033 52.664C20.2981 54.53 20.9823 55.0651 22.4767 55.0684C23.2458 55.0701 23.4237 55.0306 23.9466 54.7422C24.5771 54.3945 25.1084 53.7611 25.3524 53.0663C25.4338 52.8347 25.537 51.69 25.596 50.3672C25.7121 47.7608 25.9713 45.6318 26.4672 43.2113C26.9158 41.0214 26.9951 40.8009 27.4421 40.5001C27.882 40.204 28.2142 40.1856 28.7267 40.4288C29.2211 40.6634 29.3417 40.9257 29.6757 42.4922C30.3389 45.6026 30.5981 47.658 30.7236 50.8008C30.8044 52.827 30.8173 52.9138 31.1228 53.4749C32.2436 55.5341 34.9324 55.7004 36.3121 53.7958C36.9587 52.9032 38.1708 49.6965 38.7243 47.414C39.1753 45.5541 39.3732 44.1025 39.4899 41.7981C39.5458 40.6944 39.6499 39.5869 39.7213 39.3371C39.7928 39.0872 40.5563 37.2892 41.4179 35.3415C42.4019 33.1172 42.9845 31.666 42.9845 31.4393C42.9845 31.1796 42.9037 31.0148 42.6963 30.8517C42.4267 30.6396 42.2679 30.625 40.2357 30.625H38.0633L37.6331 30.2364C36.9408 29.6108 36.419 28.693 36.1659 27.6553C36.0965 27.371 36.1113 27.3619 36.9422 27.182C39.6028 26.6057 41.7171 25.746 42.8316 24.7872C43.725 24.0187 43.7687 23.8514 44.7359 17.5C45.6832 11.2794 45.7638 10.2653 45.4381 8.66335C45.2507 7.74143 44.7381 6.45922 44.1692 5.48852C43.613 4.53991 41.7863 2.77482 40.7666 2.20071C38.8812 1.13922 37.3815 0.822803 34.6173 0.903412C33.026 0.949678 32.6193 0.999006 31.7958 1.24543C30.6747 1.58077 29.7461 2.02658 28.8032 2.68218L28.1297 3.15041L27.5536 2.71751C26.7767 2.13366 25.3876 1.4749 24.3302 1.18855C23.618 0.995834 23.0955 0.94749 21.4376 0.92135C20.3248 0.90374 19.176 0.93185 18.8848 0.983912ZM18.9767 2.78685C15.2053 3.48718 12.4511 6.78057 12.4529 10.5878C12.4534 11.3399 12.6477 12.9036 13.1212 15.9634C13.4885 18.3367 13.8046 20.2941 13.8237 20.3131C13.8428 20.3322 14.2743 20.1265 14.7828 19.856C18.7819 17.7287 27.443 16.8998 34.7267 17.9475C37.7056 18.376 39.654 18.9164 41.4289 19.8066C42.0085 20.0973 42.4898 20.3247 42.4985 20.3121C42.5071 20.2994 42.8229 18.2711 43.2001 15.8047C43.8067 11.8386 43.8793 11.1938 43.8285 10.2265C43.719 8.14469 42.9888 6.54071 41.4632 5.03122C40.0738 3.6566 38.8238 3.01566 36.9664 2.72582C35.9074 2.56044 33.3083 2.65954 32.4298 2.89874C31.4019 3.17852 30.0974 3.86529 29.2209 4.58804C28.2018 5.42837 28.0346 5.43547 27.1547 4.67576C25.9171 3.60738 24.6155 2.98974 23.0783 2.74146C22.123 2.58713 19.9209 2.61152 18.9767 2.78685ZM18.8424 4.53215C17.4555 4.86815 15.8747 6.00193 15.0918 7.2219C14.6637 7.88919 14.2612 9.0349 14.1597 9.87566L14.0832 10.5093L14.9985 10.4772L15.9139 10.4453L15.9913 9.82261C16.1473 8.56951 17.1542 7.18296 18.3237 6.61082C18.6303 6.46076 19.1856 6.28138 19.5578 6.21226L20.2345 6.08637V5.23062V4.37497L19.8244 4.38427C19.5988 4.38941 19.1568 4.45591 18.8424 4.53215ZM25.6486 19.3223C21.1316 19.5942 17.8208 20.2817 15.5788 21.4135C14.2106 22.1042 13.8887 22.7293 14.562 23.3875C15.2757 24.0853 16.9655 24.7958 19.1258 25.3063L20.2131 25.5633L20.2837 24.9982C20.43 23.8276 21.1584 22.8024 22.258 22.2195L22.8048 21.9297L27.9579 21.8983C32.9422 21.868 33.1309 21.8743 33.7162 22.0934C34.9366 22.5499 35.9842 23.9015 35.9844 25.0195C35.9845 25.5652 36.0482 25.5808 37.1876 25.3157C39.9846 24.6651 42.1095 23.5376 42.1095 22.7043C42.1095 22.1619 40.8451 21.3263 39.1386 20.741C35.9251 19.6387 30.2708 19.0441 25.6486 19.3223ZM22.9989 23.8521C22.2129 24.2443 22.0706 24.6071 21.9773 26.456C21.933 27.3353 21.8374 28.2515 21.7649 28.4922C21.6199 28.9735 21.0455 30.1818 20.8838 30.3461C20.8274 30.4032 20.7814 30.4893 20.7814 30.5375C20.7814 30.5856 24.0978 30.625 28.1511 30.625H35.5207L35.0379 29.6679C34.4644 28.5311 34.2345 27.4611 34.2345 25.9284C34.2345 24.7586 34.0905 24.3953 33.4337 23.9085C33.1329 23.6856 33.0011 23.6789 28.293 23.6506C23.5678 23.6222 23.4509 23.6267 22.9989 23.8521ZM15.5642 32.5117C15.595 32.5869 16.1696 33.8789 16.8408 35.3828C17.5121 36.8867 18.1534 38.4617 18.2661 38.8828C18.4023 39.3917 18.5088 40.3636 18.5837 41.7812C18.7873 45.6319 19.5412 48.7945 20.9972 51.9051C21.4372 52.845 21.569 53.0323 21.9016 53.1902C22.3771 53.4158 22.5408 53.4197 23.026 53.2169C23.6193 52.9691 23.7033 52.6353 23.8392 49.9843C24.0483 45.9045 24.8598 41.126 25.541 39.9637C26.723 37.9468 29.7815 38.0581 30.8523 40.1571C31.5269 41.4793 32.4752 47.6682 32.4906 50.8496C32.498 52.3494 32.6212 52.7826 33.1408 53.1345C33.587 53.4368 34.2132 53.4147 34.5879 53.0835C34.8744 52.8304 35.7497 51.0023 36.2028 49.7109C37.1162 47.108 37.586 44.5911 37.734 41.5078C37.7902 40.3354 37.8998 39.2753 38.0049 38.8869C38.1431 38.3757 40.2406 33.4677 40.7059 32.5664C40.7998 32.3846 40.1671 32.375 28.1563 32.375C18.0806 32.375 15.5195 32.4028 15.5642 32.5117Z" fill="#1E84B5"/>
</svg>

<svg xmlns="http://www.w3.org/2000/svg" width="56" height="56" fill="none" viewBox="0 0 56 56"><path fill="#1e84b5" fill-rule="evenodd" d="M18.885.984c-3.935.703-7.025 3.575-7.967 7.405-.436 1.774-.365 2.771.661 9.315.626 3.989.962 5.852 1.107 6.137.699 1.369 3.407 2.698 6.908 3.391l.618.123-.14.53c-.201.762-.689 1.606-1.28 2.213l-.512.527h-2.229c-2.087 0-2.243.014-2.466.222-.484.45-.457.541 1.271 4.443 1.065 2.402 1.68 3.933 1.755 4.358.063.361.166 1.543.227 2.625.216 3.779 1.088 7.311 2.565 10.391.895 1.866 1.58 2.401 3.074 2.404.769.002.947-.037 1.47-.326a3.17 3.17 0 0 0 1.405-1.676c.082-.231.185-1.376.244-2.699.116-2.606.375-4.735.871-7.156.449-2.19.528-2.41.975-2.71.44-.297.772-.315 1.285-.072.494.234.615.497.949 2.063.663 3.11.922 5.166 1.048 8.309.08 2.026.093 2.113.399 2.674 1.12 2.06 3.81 2.225 5.19.32.646-.892 1.858-4.099 2.411-6.381.451-1.86.65-3.312.766-5.616.056-1.104.16-2.211.231-2.46s.835-2.049 1.697-3.996c.984-2.225 1.566-3.676 1.566-3.903 0-.26-.08-.424-.288-.587-.27-.212-.428-.227-2.46-.227h-2.173l-.43-.389c-.692-.625-1.214-1.543-1.467-2.58-.07-.285-.055-.294.776-.474 2.66-.576 4.775-1.436 5.89-2.395.893-.768.937-.936 1.904-7.287.947-6.22 1.028-7.235.702-8.837-.187-.922-.7-2.204-1.269-3.174-.556-.95-2.383-2.714-3.402-3.288C38.88 1.139 37.38.823 34.617.903c-1.591.047-1.998.096-2.821.342a10.1 10.1 0 0 0-2.993 1.437l-.673.468-.576-.432c-.777-.584-2.166-1.243-3.224-1.53-.712-.192-1.234-.24-2.892-.267-1.113-.017-2.262.01-2.553.063m.092 1.803c-3.772.7-6.526 3.994-6.524 7.8 0 .753.195 2.317.668 5.376.367 2.374.684 4.331.703 4.35.019.02.45-.186.959-.457 3.999-2.127 12.66-2.956 19.944-1.908 2.979.428 4.927.968 6.702 1.859.58.29 1.06.518 1.07.505.008-.013.324-2.04.701-4.507.607-3.966.68-4.611.628-5.578-.109-2.082-.84-3.686-2.365-5.196-1.39-1.374-2.64-2.015-4.497-2.305-1.059-.166-3.658-.066-4.536.173-1.028.28-2.333.966-3.21 1.689-1.018.84-1.185.847-2.065.088-1.238-1.069-2.54-1.686-4.077-1.935-.955-.154-3.157-.13-4.101.046m-.135 1.745c-1.386.336-2.967 1.47-3.75 2.69-.428.667-.83 1.813-.932 2.654l-.077.633.915-.032.916-.032.077-.622c.156-1.253 1.163-2.64 2.333-3.212.306-.15.862-.33 1.234-.399l.677-.126V4.375l-.41.01a6 6 0 0 0-.983.147m6.807 14.79c-4.517.272-7.828.96-10.07 2.092-1.368.69-1.69 1.315-1.017 1.973.714.698 2.403 1.409 4.564 1.92l1.087.256.07-.565c.147-1.17.875-2.196 1.975-2.779l.547-.29 5.153-.03c4.984-.031 5.173-.025 5.758.194 1.22.457 2.268 1.808 2.268 2.927 0 .545.064.56 1.204.296 2.797-.65 4.921-1.778 4.921-2.612 0-.542-1.264-1.378-2.97-1.963-3.214-1.102-8.868-1.697-13.49-1.419m-2.65 4.53c-.786.392-.928.755-1.022 2.604-.044.88-.14 1.796-.212 2.036-.145.482-.72 1.69-.881 1.854-.057.057-.103.143-.103.192 0 .048 3.317.087 7.37.087h7.37l-.483-.957c-.574-1.137-.803-2.207-.803-3.74 0-1.17-.145-1.533-.801-2.02-.301-.222-.433-.23-5.141-.257-4.725-.029-4.842-.024-5.294.201m-7.435 8.66c.031.075.606 1.367 1.277 2.87.671 1.505 1.312 3.08 1.425 3.5.136.51.243 1.482.318 2.9.203 3.85.957 7.013 2.413 10.123.44.94.572 1.127.905 1.285.475.226.639.23 1.124.027.593-.248.677-.582.813-3.233.21-4.08 1.02-8.858 1.702-10.02 1.182-2.017 4.24-1.906 5.311.193.675 1.322 1.623 7.511 1.639 10.693.007 1.5.13 1.933.65 2.285.446.302 1.072.28 1.447-.051.286-.254 1.162-2.082 1.615-3.373.913-2.603 1.383-5.12 1.531-8.203.056-1.173.166-2.233.27-2.621.14-.511 2.237-5.42 2.702-6.32.094-.182-.539-.192-12.55-.192-10.075 0-12.636.028-12.592.137" clip-rule="evenodd"/></svg>
